X: 36
T: POLKA DE CAZABONE
M: 4/4
L: 1/8
Q:1/4=120
K:C
|egeg ege3/2 z/2 |edde/2d/2 cdec|egeg ege3/2 z/2 |edde/2d/2 cdec|
c3/2 z/2 c/2e/2c/2e/2 c/2e/2c/2e/2gg|g3/2 z/2 df de/2d/2cd|ecc/2e/2c/2e/
2 c/2e/2c/2e/2gg|g3/2 z/2 df de/2d/2cd|
ecc3/2|
